X: 11781
T: Elizabeth Kelly's Delight
R: slip jig
M: 9/8
K: Edorian
|:e3 efe edB|edB ddd ABd|e3 efe edB|ddd d2 B ABd:|
|:g3 fed edB|g3 fdB ABd|g2 a fed edB|ddd d2 B ABd:|
|:eAf AeA dBG|eAf AeA gfd|eAf AeA dBA|Bdd d2 B ABd:|
|:gGf AeA dBG|gAf AeA Bca|gGf AeA dBA|Bdd d2 B ABd:|

